X:1
T:Title
L:1/8
Q:1/4=120
M:4/4
K:Bb
V:1 treble nm="Grand Piano"
V:1
 F2 F2 D2 E2 | F2 F2 G2 F2 | D2 E2 F2 E2 | D2 =B,2 C4 | F2 F2 D2 D2 | G2 G2 E2 E2 | A2 A2 F2 F2 | %7
w: ????~???? * * *|||||||
 G2 A2 B4 | B2 B2 F2 Bc | d2 dc cBBA | ABcB BAAG | BAGF G4 | DEFE EDDC | DEDC B,4 | B2 B2 F2 Bc | %15
w: ||||||||
 d2 dc cBBA | ABcB BAAG | BAGF G4 | DEFE EDDC | DEDC B,4 |] %20
w: |||||

